X: 1
T: Far Away harmony
C: Pete Jung
%D:1992
R: waltz
S: Fiddle Hell Online 2022-4-6 handout for Abby Newton cello workshop
Z: 2022 John Chambers <jc:trillian.mit.edu>
M: 3/4
L: 1/8
K: Bm
V: 2 nm=harm. clef=bass middle=D
DE |\
"Bm"F3 D FB | "F#m"AF D2 DE | "Bm"F3 D FG | "A"A6 ||
"G"G4 G2 | "F#m"AG F2 Bc | "Bm"dc BA GF | "Bm"G4 :|
|: Bc |\
"D"d3 A df | "A"cA F2 Bc | "D"d3 A de | "Em"c6 ||
"Bm"(de d)(c "A"dc) | "G"(Bc B)(A "F#m"BA) | "Bm"F4 "F#m"F2 | "Bm"B,6 :|
